X: 11260
T: Dusty Windowsills
R: jig
M: 6/8
K: Adorian
|:A2B cBA|eAB cBA|~G3 EGG|DGG EGG|
A2B cBA|e2d efg|age dBG|1 ABA A2E:|2 ABA A2e||
|:a3 age|dBd g3|gag gfe|dBA GFG|
EGG DGG|EGG ABc|Bed BAG|1 ABA A2e:|2 ABA A2G||
|:A3 g2f|A3 edB|G3 edB|G3 edB|
A3 g2f|A3 efg|age dBG|1 A2B A2G:|2 A2B A2E||

